!!!OTL: Ach, herzallerliebste mein (3-65), S. 187
!!!id: P1038
**kern
*clefG2
*k[f#]
*G:
{4d
=1
*M4/4
4g
8a
8cc
4b
4a
=2
2g}
4r
=3
{8dd
8ee
=4
4dd
8.cc
16ee
4dd
8cc
8b
=5
2a}
4r
=6
{8b
8a
=7
4g
8a
8b
4cc
4b
=8
2a}
4r
=9
{8a
8b
=10
4cc
4cc
4.cc
8dd
=11
4cc}
=12
{8b
8a
=13
4b
8cc
8ee
4dd
8dd
8cc
=14
4dd}
=15
{8a
8cc
=16
4b
8a
8g
2f#
=17
2g}
4r
==
*-
!!!minrhy: 16
!!!meters: 2/4 4/4 ]  ZZ[6
!!!cut: Ach, herzallerliebste mein (3-65), S. 187
!!!reg: Lothringen
!!!trd: PINCK, Louis: Verklingende Weisen, Bd3, Metz 1933
!!!rhy1: X__  X__X_X_X__X__  X___0__
!!!rhy2: X_X_  X__X_.XX__X_X_  X___0__
!!!key: P1038  16  G 2/4 4/4 ]  ZZ[6
!!!mod: HEPTATONIK IONISCH]  AMBITUS[9
!!!kad: 122451
!!!akz: 131_552_142_444_355_3-71_
!!!fot: 'a__b__c__d__e__f__
!!!for: 'a__b__av_c__d__e__
!!!fok: '^a_\__Sd_/__/__\__
!! PHRAS[AUFTAKTIG]
!!!fkt: Treuversprechen
!! LOTH VKL
!! PR[20] 2K[5] 2G[23] 3K[3] 3G[0] 4A[8] 4Ü[0] 5A[0] 6K[0] 6G[0]
!! 7K[0] 7G[0] 8A[0] MEHR[0] SI[38] ABS[40] SR[28] SP[10]
!! ST[10] 2k[10] 2g[28] 3k[0] 3g[0] 4d[3] 4ü[0] 5d[3] 6k[0] 6g[0]
!! 7k[0] 7g[0] 8d[0] mehr[0] si[43] dm[-5] sr[38] sp[5]
!! 1F[77] 2F[12] 3F[5] 4F[0] LF[0] 2P[7] 3P[0] 4P[0] TRI[0] DF[4] AB[43]
!! TF[0] U3K[0] U3[0] U4[0] U4Ü[0] U5[0] U6K[0] U6[0] U7K[7] U7[0]
!! N1[34] N2K[0] N2[20] N3K[15] N3[0] N4[12] N4Ü[0] N5[12] N6K[0] N6[0]
!!!n7k: 0] N7[0] O1[0] O2K[0] O2[0] O3K[0] O3[0] HÖ[0
